svgs/duotone/00.svg

<svg xmlns="http://www.w3.org/2000/svg" viewBox="0 0 640 512"><!--! Font Awesome Pro 6.4.2 by @fontawesome - https://fontawesome.com License - https://fontawesome.com/license (Commercial License) Copyright 2023 Fonticons, Inc. --><path class="fa-primary" style="fill:var(--fa-primary-color,inherit);opacity:var(--fa-primary-opacity,1);" d="M0 176C0 96.5 64.5 32 144 32s144 64.5 144 144V336c0 79.5-64.5 144-144 144S0 415.5 0 336V176zM144 96c-44.2 0-80 35.8-80 80V336c0 44.2 35.8 80 80 80s80-35.8 80-80V176c0-44.2-35.8-80-80-80z"/><path class="fa-secondary" style="fill:var(--fa-secondary-color,inherit);opacity:var(--fa-secondary-opacity,.4);" d="M352 176c0-79.5 64.5-144 144-144s144 64.5 144 144V336c0 79.5-64.5 144-144 144s-144-64.5-144-144V176zM496 96c-44.2 0-80 35.8-80 80V336c0 44.2 35.8 80 80 80s80-35.8 80-80V176c0-44.2-35.8-80-80-80z"/></svg>

<svg xmlns="http://www.w3.org/2000/svg" viewBox="0 0 640 512"><!--! Font Awesome Pro 6.1.1 by @fontawesome - https://fontawesome.com License - https://fontawesome.com/license (Commercial License) Copyright 2022 Fonticons, Inc. --><defs><style>.fa-secondary{opacity:.4}</style></defs><path class="fa-primary" d="M0 176C0 96.47 64.47 32 144 32C223.5 32 288 96.47 288 176V336C288 415.5 223.5 480 144 480C64.47 480 0 415.5 0 336V176zM144 96C99.82 96 64 131.8 64 176V336C64 380.2 99.82 416 144 416C188.2 416 224 380.2 224 336V176C224 131.8 188.2 96 144 96z"/><path class="fa-secondary" d="M352 176C352 96.47 416.5 32 496 32C575.5 32 640 96.47 640 176V336C640 415.5 575.5 480 496 480C416.5 480 352 415.5 352 336V176zM496 96C451.8 96 416 131.8 416 176V336C416 380.2 451.8 416 496 416C540.2 416 576 380.2 576 336V176C576 131.8 540.2 96 496 96z"/></svg>
